mimes/16/text-html.svg

<?xml version="1.0" encoding="UTF-8" standalone="no"?>
<svg
   xmlns:dc="http://purl.org/dc/elements/1.1/"
   xmlns:cc="http://creativecommons.org/ns#"
   xmlns:rdf="http://www.w3.org/1999/02/22-rdf-syntax-ns#"
   xmlns:svg="http://www.w3.org/2000/svg"
   xmlns="http://www.w3.org/2000/svg"
   xmlns:xlink="http://www.w3.org/1999/xlink"
   version="1.1"
   width="16"
   height="16"
   id="svg3810">
  <defs
     id="defs3812">
    <linearGradient
       x1="23.99999"
       y1="5.5641499"
       x2="23.99999"
       y2="43"
       id="linearGradient3988"
       xlink:href="#linearGradient3977"
       gradientUnits="userSpaceOnUse"
       gradientTransform="matrix(0.24324324,0,0,0.35135133,2.1621636,-0.43242804)" />
    <linearGradient
       id="linearGradient3977">
      <stop
         id="stop3979"
         style="stop-color:#ffffff;stop-opacity:1"
         offset="0" />
      <stop
         id="stop3981"
         style="stop-color:#ffffff;stop-opacity:0.23529412"
         offset="0.03626217" />
      <stop
         id="stop3983"
         style="stop-color:#ffffff;stop-opacity:0.15686275"
         offset="0.95056331" />
      <stop
         id="stop3985"
         style="stop-color:#ffffff;stop-opacity:0.39215687"
         offset="1" />
    </linearGradient>
    <linearGradient
       id="linearGradient3600">
      <stop
         id="stop3602"
         style="stop-color:#f4f4f4;stop-opacity:1"
         offset="0" />
      <stop
         id="stop3604"
         style="stop-color:#dbdbdb;stop-opacity:1"
         offset="1" />
    </linearGradient>
    <linearGradient
       id="linearGradient3104">
      <stop
         id="stop3106"
         style="stop-color:#a0a0a0;stop-opacity:1"
         offset="0" />
      <stop
         id="stop3108"
         style="stop-color:#bebebe;stop-opacity:1"
         offset="1" />
    </linearGradient>
    <linearGradient
       x1="25.132275"
       y1="0.98520643"
       x2="25.132275"
       y2="47.013336"
       id="linearGradient3806"
       xlink:href="#linearGradient3600"
       gradientUnits="userSpaceOnUse"
       gradientTransform="matrix(0.31428714,0,0,0.3259265,0.457108,-0.32223804)" />
    <linearGradient
       x1="-51.786404"
       y1="50.786446"
       x2="-51.786404"
       y2="2.9062471"
       id="linearGradient3808"
       xlink:href="#linearGradient3104"
       gradientUnits="userSpaceOnUse"
       gradientTransform="matrix(0.25378586,0,0,0.30501865,19.128979,-0.68547704)" />
  </defs>
  <metadata
     id="metadata3815">
    <rdf:RDF>
      <cc:Work
         rdf:about="">
        <dc:format>image/svg+xml</dc:format>
        <dc:type
           rdf:resource="http://purl.org/dc/dcmitype/StillImage" />
        <dc:title />
      </cc:Work>
    </rdf:RDF>
  </metadata>
  <g
     id="layer1">
    <path
       d="m 2.4999621,0.49997396 c 2.5206756,0 11.0000629,9.54e-4 11.0000629,9.54e-4 l 1.3e-5,14.99909804 c 0,0 -7.3333841,0 -11.0000759,0 0,-5.000017 0,-10.000035 0,-15.00005204 z"
       id="path4160"
       style="fill:url(#linearGradient3806);fill-opacity:1;stroke:url(#linearGradient3808);stroke-width:0.99992192;stroke-linecap:butt;stroke-linejoin:round;stroke-miterlimit:4;stroke-opacity:1;stroke-dasharray:none;stroke-dashoffset:0;display:inline" />
    <path
       d="m 12.5,14.5 -9.0000001,0 0,-13 L 12.5,1.5 z"
       id="rect6741-1"
       style="fill:none;stroke:url(#linearGradient3988);stroke-width:1;stroke-linecap:round;stroke-linejoin:miter;stroke-miterlimit:4;stroke-opacity:1;stroke-dasharray:none;stroke-dashoffset:0" />
    <path
       d="M 4.1191806,9.5 5.8783778,7.236 5.2905415,6.5000004 3,9.5 5.3513515,12.5 6,11.827999 4.1191806,9.5 z"
       id="path2882"
       style="opacity:0.4;fill:#ffffff;fill-opacity:1;stroke:none" />
    <path
       d="m 8.5,7.5000004 c 0,0 1,0 1,0 0,0 -2,3.9999996 -2,3.9999996 0,0 -0.801461,0 -1,0 0,0 2,-3.9999996 2,-3.9999996 z"
       id="rect2888"
       style="opacity:0.4;color:#000000;fill:#ffffff;fill-opacity:1;fill-rule:evenodd;stroke:none;stroke-width:3;marker:none;visibility:visible;display:inline;overflow:visible;enable-background:accumulate" />
    <path
       d="M 11.885135,9.444 10.121622,7.236 10.709459,6.5000004 13,9.444 10.648649,12.5 10,11.827999 11.885135,9.444 z"
       id="path2882-6"
       style="opacity:0.4;fill:#ffffff;fill-opacity:1;stroke:none" />
    <path
       d="M 4.1191806,8.5000004 5.8783778,6.236 5.2905415,5.5000004 3,8.5000004 5.3513515,11.5 6,10.827999 4.1191806,8.5000004 z"
       id="path2882-7"
       style="fill:#999999;fill-opacity:1;stroke:none" />
    <path
       d="m 8.5,6.5000004 c 0,0 1,0 1,0 0,0 -2,3.9999996 -2,3.9999996 0,0 -0.801461,0 -1,0 0,0 2,-3.9999996 2,-3.9999996 z"
       id="rect2888-2"
       style="color:#000000;fill:#666666;fill-opacity:1;fill-rule:evenodd;stroke:none;stroke-width:3;marker:none;visibility:visible;display:inline;overflow:visible;enable-background:accumulate" />
    <path
       d="M 11.885135,8.444 10.121622,6.236 10.709459,5.5000004 13,8.444 10.648649,11.5 10,10.827999 11.885135,8.444 z"
       id="path2882-6-7"
       style="fill:#999999;fill-opacity:1;stroke:none" />
  </g>
</svg>

<svg xmlns="http://www.w3.org/2000/svg" xmlns:xlink="http://www.w3.org/1999/xlink" viewBox="0 0 16 16"><defs><linearGradient x1="24" y1="5.564" x2="24" y2="43" id="f" xlink:href="#a" gradientUnits="userSpaceOnUse" gradientTransform="matrix(.24324 0 0 .35135 2.162 -.432)"/><linearGradient id="a"><stop offset="0" stop-color="#fff"/><stop offset=".036" stop-color="#fff" stop-opacity=".235"/><stop offset=".951" stop-color="#fff" stop-opacity=".157"/><stop offset="1" stop-color="#fff" stop-opacity=".392"/></linearGradient><linearGradient id="b"><stop offset="0" stop-color="#f4f4f4"/><stop offset="1" stop-color="#dbdbdb"/></linearGradient><linearGradient id="c"><stop offset="0" stop-color="#a0a0a0"/><stop offset="1" stop-color="#bebebe"/></linearGradient><linearGradient x1="25.132" y1=".985" x2="25.132" y2="47.013" id="d" xlink:href="#b" gradientUnits="userSpaceOnUse" gradientTransform="matrix(.3143 0 0 .32593 .457 -.322)"/><linearGradient x1="-51.786" y1="50.786" x2="-51.786" y2="2.906" id="e" xlink:href="#c" gradientUnits="userSpaceOnUse" gradientTransform="matrix(.2538 0 0 .30502 19.13 -.685)"/></defs><path d="M2.5.5h11v15h-11V.5z" fill="url(#d)" stroke="url(#e)" stroke-linejoin="round"/><path d="M12.5 14.5h-9v-13h9z" fill="none" stroke="url(#f)" stroke-linecap="round"/><path d="M4.12 9.5l1.758-2.264L5.29 6.5 3 9.5l2.35 3 .65-.672L4.12 9.5z" opacity=".4" fill="#fff"/><path d="M8.5 7.5h1l-2 4h-1l2-4z" opacity=".4" color="#000" fill="#fff" fill-rule="evenodd" overflow="visible"/><path d="M11.885 9.444l-1.763-2.208.587-.736L13 9.444 10.65 12.5l-.65-.672 1.885-2.384z" opacity=".4" fill="#fff"/><path d="M4.12 8.5l1.758-2.264L5.29 5.5 3 8.5l2.35 3 .65-.672L4.12 8.5z" fill="#999"/><path d="M8.5 6.5h1l-2 4h-1l2-4z" color="#000" fill="#666" fill-rule="evenodd" overflow="visible"/><path d="M11.885 8.444l-1.763-2.208.587-.736L13 8.444 10.65 11.5l-.65-.672 1.885-2.384z" fill="#999"/></svg>
